X:1
T:SONATE No.28
T:für Pianoforte und Violine
T: W. A. MOZART
T:(K 304)
%%score { ( 1 3 ) | ( 2 4 ) }
L:1/8
Q:1/4=200
M:4/4
K:G
V:1 treble nm="Piano"
V:3 treble 
V:2 bass 
V:4 bass 
V:1
"^Allegro" z2 z2[K:bass] z2 E,G, | B,4[K:treble] E4 | G6 FE | _E4 =E2 F2 |[K:bass] B,6 CB, | %5
 A,4 B,2 C2 | F,6 B,A, | G,2 A,2 B,2 B,2 | E,2 z[K:treble] .E .^D.E.FD | B,2 z .F .E.F.G.E | %10
 B,2 z .G .F.G.A.F | .G.A.B.G .A.B.c.A | B4 z4 |[K:bass] z2 [G,B,]2 [F,A,]2 [E,G,]2 | %14
 z2 [G,E]2 [A,F]2 [B,G]2 | z2 [A,F]2 [G,E]2 [F,^D]2 |[K:treble] z2 [FA]2 [EG]2 [^DF]2 | %17
 z2 [A,F]2 [G,E]2 [F,^D]2 | z2 [B,^D]2 [^CE]2 [DF]2 | E2 E4 ^D2 | E4 z2 ed | dcBc A2 A2 | B4 AGFE | %23
 ABcA GBAF | E6 ed | dcBc A2 A2 | B4 AGFE | ABcA GBAF | E2 z2 z2 [Ge]2 | [Ge]2 [Ge]2 [Ge]2 [Ge]2 | %30
 g>a =f>g e2 z2 | d4 dcBc | [Fc]2 [GB]2 z2 [Ge]2 | [Ge]2 [Ge]2 [Ge]2 [Ge]2 | g>a =f>g e2 z2 | %35
 d4 d^cBc | [Dd]2 z2 z2 d2 | d2 d2 d2 d2 | d'>e' c'>d' b2 d2 | d2 d2 d2 d2 | c'>d' b>c' a2 z2 | %41
 _BABG cBcA | G2 z2 z4 | AGAF _BABG | F2 z2 z2 d2 | d'4- d'>e' c'>d' | b>c' a>b g2 =f2 | %47
 e2 ^g4 a2- | a2 e'2 d'c'ba | ag g3 fga | a/b/a/b/ a/b/a/b/ a/b/a/b/ a/b/a/b/ | %51
 d'2 d'2- d'>e' c'>d' | b>c' a>b g2 =f2 | e.^g.a.g .a.g.a.b | .c'.b.c'.b .c'.b.c'.^d' | %55
 .e'.^d'.e'.d' .e'.d'.e'.d' | e'2 z2 z4 | d'2 d'4 c'/b/a/g/ | a/b/a/b/ a/b/a/b/ a/b/a/b/ a/b/a/b/ | %59
 g2 z .G .F.G.A.F | D2 z .A .G.A.B.G | D2 z .B .A.B.c.A | F2 z .c .B.c.d.B | G2 z .g .f.g.a.f | %64
 d2 z .a .g.a.b.g | d2 z .[Bb] .[Aa].[Bb].[cc'].[Aa] | f2 z .[cc'] .[Bb].[cc'].[dd'].[Bb] | %67
 [Gg]2 [eg]2 [eg]2 [eg]2 | b>c' a>b g2 z2 | [cea]2 z2 [Acf]2 z2 | [Bg]2 [B,E]2 [B,E]2 [B,E]2 | %71
 [B,-F]4 [B,E]2 z2 | [CE]2 z2 [A,C]2 z2 | g4- g>a f>g | e>f g>a d>e f>d | g4- g>a f>g | %76
 e>f g>a d>e f>d | g4 b4 | d'6 bg | f2 g2 a2 b2 | c'6 af | e2 f2 g2 a2 | b6 ge | ^d2 e2 f2 f2 | %84
 B4 z2 B,D | F4 B4 | d6 ^cB | ^A4 B2 ^c2 | F6 GF | E4 F2 G2 | e'3 d' ^c'b^af | b2 ^c'2 f2 ^a2 | %92
 b4 z4 | c'3 b agfe | a3 g fe^dB | e2 [Ff]2 [GB]2 [F^d]2 | [Ee]6 =fe | d4 e2 =f2 | B6 ed | %99
 c2 d2 e2 e2 | cAFE DGFA | dGED CFEG | cF^D^C B,EDF | G3 =f edc^c | BBbB ^aB=aB | ^gB=gB fBeB | %106
 ^dBbB ^aB=aB | ^gB=gB fBeB | ^d2 z .E .^D.E.F.D | B,2 z .F .E.F.G.E | B,2 z .G .F.G.A.F | %111
 .G.A.B.G .A.B.c.A | B4 z4 | z8 |[K:bass] [E,^A,][E,A,][E,A,][E,A,] [E,A,][E,A,][E,A,][E,A,] | %115
 [F,A,]2 z2 z4 | [^G,D][G,D][G,D][G,D] [G,D][G,D][G,D][G,D] | [A,C]2 z2 z4 | %118
 [A,^D][A,D][A,D][A,D] [A,D][A,D][A,D][A,D] | E6 ^D2 | [E,E]4 z2[K:treble] ed | dcBc A2 A2 | %122
 B4 AGFE | ABcA GBAF | E6 ed | dcBc A2 A2 | B4 AGFE | ABcA GBAF | E2 z2 z2 [ca]2 | %129
 [ca]2 [ca]2 [ca]2 [ca]2 | c'>d' _b>c' a2 z2 | g4 g=fef | [B=f]2 [ce]2 z2 [Ec]2 | %133
 [Ec]2 [Ec]2 [Ec]2 [Ec]2 | e>=f d>e c2 z2 | B4 B^A^GA | [B,B]2 z2 z2 B2 | B2 B2 B2 B2 | %138
 b>c' a>b g2 B2 | B2 B2 B2 B2 | a>b g>a f2 z2 | GFGE AGAF | E2 z2 z4 | AGAF GFGE | ^D2 z2 z2 B2 | %145
 b4- b>c' a>b | g>a f>g e2 e2 | =f2 a4 c'2- | c'2 d'c' bag=f | =fe e3 ^de^f | %150
 f/g/f/g/ f/g/f/g/ f/g/f/g/ f/g/f/g/ | b2 b2- b>c' a>b | g>a f>g e2 d'2 | .c'.^g.a.g .a.g.a.b | %154
 .c'.b.c'.b .c'.b.c'.^d' | .e'.^d'.e'.d' .e'.d'.e'.d' | e'2 z2 z4 | B2 e'3 bge | %158
 f/g/f/g/ f/g/f/g/ f/g/f/g/ f/g/f/g/ | e2 z .E .^D.E.F.D | B,2 z .F .E.F.G.E | B,2 z .G .F.G.A.F | %162
 ^D2 z .A .G.A.B.G | E2 z .e .^d.e.f.d | B2 z .f .e.f.g.e | B2 z .[Gg] .[Ff].[Gg].[Aa].[Ff] | %166
 [^D^d]2 z .[Aa] .[Gg].[Aa].[Bb].[Gg] | [Ee]2 [ce]2 [ce]2 [ce]2 | g>a =f>g e2 z2 | %169
 [cc']2 z2 [A^d]2 z2 | [Ge]2[K:bass] [G,C]2 [G,C]2 [G,C]2 | D4 C2 z2 | [F,E]2 z2 [F,A,]2 z2 | %173
[K:treble] e4- e>f ^d>f | e>f ^g>a b>c' d'>b | c'4- c'>b c'>a | f>g a>g b>a g>f | e4- e>f ^d>f | %178
 e>f ^g>a b>c' d'>b | c'4- c'>b c'>a | f>g a>g b>a g>f | e2 b2 z2 f^d | e2 b2 z2 f^d | e4 B4 | %184
 g6 fg | e2 e'2 e'2 ^d'e' | c'6 bc' | a2 a2 a2 ^ga | =f2 e2 ^d4 | a4- agfe | ^d2 e2 f2 f2 | B4 z4 | %192
 z8 |[K:bass] B,EB,E B,EB,E | B,EB,E B,EB,E | B,FB,F B,FB,F | A,^DA,D A,DA,D | A,^DA,D A,DA,D | %198
 A,^DCD B,DB,D | E2 E4 ^D2 | E6[K:treble] ed | dcBc A2 A2 | B4 AGFE | ABcA GBAF | E6 ed | %205
 dcBc A2 A2 | B4 AGFE | =FGAF EG^F^D | E2 z2 !arpeggio![Be^gb]2 z2 | [e^gbe']4 z4 |] %210
[M:3/4][Q:1/4=198]"^Tempo di Menuetto" z2 z2 g2 | ag fe b2 | b2 f2 g2 | %213
 f2 e/4f/4e/4f/4e/4f/4e/4f/4 e/4f/4e/4f/4e/4f/4e/ | [B^d]2 z2 e2 | dc c'2 b2- | b2 a2 g2- | %217
 gf ba gf | e2 ^d2 f2 | ag fe b2 | b2 f2 g2 | f2 e/4f/4e/4f/4e/4f/4e/4f/4 e/4f/4e/4f/4e/4f/4e/ | %222
 [B^d]2 z2 e2 | dc c'2 b2- | b2 a2 g2 | fa gb ^df | e2 z4 | B,E GB GE | B,F BF DB, | GF G^G A^A | %230
 BF ^DF EB | EA ce Ge | ^Ge Ae Be | Bc dc BA | GB FB ^DF | B,E GB GE | B,F B^A BF | GF G^G A^A | %238
 BF ^DF EB | ^DF AD EG | FB cF GB | Ac EG FA | G2 z2 g2 | ag fe e2 | e2 d2 d2 | a3 f dc | %246
 ^A2 B2 d'2 | ^c'd' e'd' =c'b | b2 a2 c'2 | e3 f ga | g2 f2 z2 | DG BD CA | B,^G A,F ^G,E | %253
 A,E AC B,G | A,F G,E F,D | DB, G,.G .G.G | GE B,.G .G.G | GE C.c .c.c | dB G.d .d.d | %259
 ec .A.e .e.e | eA dA Gd | ec Bd cA | G2 z2 c2 | B2 (3Bcd (3cde | %264
 d2 z2 ^d/4e/4d/4e/4d/4e/4^c/4d/4 | e2 (3efg (3fga | g2 z2 ^g/4a/4g/4a/4g/4a/4f/4g/4 | %267
 a2 (3abc' (3bc'd' | c'2- (3c'ad' (3bgd | (3aec (3Bdg (3Acf | c'2- (3c'ad' (3bgd | %271
 (3aec (3Bdg (3Adf | g2 B/4c/4B/4c/4B/4c/4B/4c/4 B/4c/4B/4c/4A/B/ | %273
 c2 ^c/4d/4c/4d/4c/4d/4c/4d/4 c/4d/4c/4d/4B/c/ | d2 ^d/4e/4d/4e/4d/4e/4d/4e/4 d/4e/4d/4e/4^c/d/ | %275
 ef g^g a^a | bf g^d e^A | BF G^D E^A, | z6 | z6[Q:1/4=50]"^poco rit." | z6 | %281
[Q:1/4=198]"^tempo primo" ag fe b2 | b2 f2 g2 | f2 e/4f/4e/4f/4e/4f/4e/4f/4 e/4f/4e/4f/4e/4f/4e/ | %284
 ^d2 z2 e2 | dc c'2 b2- | b2 a2 g2- | gf ba gf | e2 ^d2 f2 | ag fe b2 | b2 f2 g2 | %291
 f2 e/4f/4e/4f/4e/4f/4e/4f/4 e/4f/4e/4f/4e/4f/4e/ | ^d2 z2 e2 | dc c'2 b2- | b2 a2 ^g2- | %295
 g2 a2 b2- | b2 c'2 ^c'2- | c'2 d'2 ^d'2- | d'2 e'2 b2 | d'/c'/b/a/ g2 f/4g/4f/4g/4f/4g/4f/ | %300
 e2 z2 [e-g]2 | [ef]2 z2 [^da]2 | [eg]2 z2 [e-b]2 | [ec']2 z2 [F^d]2 ||[K:E] [Ee]2 z2 [EG]2 | %305
 [EG]2 [EG]2 [EG]2 | G2 F2 F2 | [B,DF]2 [B,DF]2 [B,DF]2 | c2 B2 E2 | E2 E2 E2 | E2 c2 [EB]2 | %311
 B2 A2 G2 | G2 F2 G2 | G2 G2 G2 | G2 F2 F2 | F2 F2 F2 | c2 B2 E2 | [CE]2 [DF]2 [EG]2 | %318
 [DF]2 [EG]2 [CE]2 | [B,D]4 [^A,C]2 | B,2 z2 B2 | F2 ^E2 G2 | B2 A2 =GF | E2 D2 F2 | A2 G2 [DFG]2 | %325
 G2 A2 G2 | c2 B2 E2 | E2 D2 E2 | [EG]6 | [DF]6 | z2 z2 G2 | G2 G2 G2 | G2 F2 F2 | F2 F2 F2 | %334
 c2 B2 E2 | E2 E2 E2 | E2 c2 B2 | BA G2 F2 | ED E=F ^F=G ||[K:G] AG FE B2 | B2 F2 G2 | %341
 F2 E/4F/4E/4F/4E/4F/4E/4F/4 E/4F/4E/4F/4E/4F/4E/ | ^D2 z2 E2 | DC c2 B2- | B2 A2 G2- | GF BA GF | %346
 E2 ^D2 g2 | ag fe b2 | b2 f2 g2 | f2 e/4f/4e/4f/4e/4f/4e/4f/4 e/4f/4e/4f/4e/4f/4e/ | ^d2 z2 e2 | %351
 dc c'2 b2- | b2 a2 ^g2- | g2 a2 b2- | b2 c'2 ^c'2- | c'2 d'2 ^d'2- | d'2 e'2 b2 | %357
 d'/c'/b/a/ g2 f/4g/4f/4g/4f/4g/4f/ | e2 z4 | z2 [B,EG]2 z2 | z2 [CEG]2 z2 | z2 [EG]2 z2 | %362
 z2 [EG]2 z2 | z2 [B,EG]2 z2 | z2 [CF]2 z2 | z2 [B,EG]2 [A,^DF]2 | [G,B,E]2 z2 B2 | ^de z2 gf | %368
 ^de z2 bg | ^de z2 ^d'e' | ^de z2 ^AB | ^de z2 bg | ^ef z2 c'a | fg z2 b^d | e'2- (3e'bg (3bge | %375
 (3fac' (3bge (3f^dB | e'2- (3e'bg (3bge | (3fac' (3bge (3af^d | (3z eg (3be'b (3gbg | %379
 (3ege (3BeB (3GBG |[K:E] (3EGE (3B,EB, (3G,B,G, | z2 [EGBe]4 |] %382
V:2
 z2 z2 z2 E,,G,, | B,,4 E,4 | G,6 F,E, | _E,4 =E,2 F,2 | B,,6 C,B,, | A,,4 B,,2 C,2 | F,,6 B,,A,, | %7
 G,,2 A,,2 B,,2 B,,2 | E,,2 z .E, .^D,.E,.F,.D, | B,,2 z .F, .E,.F,.G,.E, | %10
 B,,2 z .G, .F,.G,.A,.F, | .G,.A,.B,.G, .A,.B,.C.A, | B,4 z4 | E,2 z2 z4 | E,,2 z2 z4 | %15
 B,,2 z2 z4 | B,2 z2 z4 | B,,2 z2 z4 | B,,2 z2 z4 | z2 C,2 B,,2 B,,2 | [E,,E,]4 ^G,,4 | A,,4 C,4 | %22
 B,,4 C,4 | A,,4 B,,4 | E,,4 ^G,,4 | A,,4 C,4 | B,,4 C,4 | A,,4 B,,4 | E,,2 z2 z2 [C,,C,]2 | %29
 [C,,C,]2 [C,,C,]2 [C,,C,]2 [C,,C,]2 | [B,,,B,,]4 [C,,C,]2 z2 | D,8 | G,,4 z2 [C,,C,]2 | %33
 [C,,C,]2 [C,,C,]2 [C,,C,]2 [C,,C,]2 | [B,,,B,,]4 [C,,C,]2 z2 | [G,,G,]4 [A,,A,]4 | %36
 [D,,D,]2 z2 z4 | G,2 z2 D,2 z2 | G,,2 z2 z4 | D,2 z2 G,,2 z2 | D,,2 z2 z DCA, | %41
 G,F,G,D, A,G,A,D, | _B,2 z2 z4 | F,E,F,D, G,F,G,D, | A,2 z2 z4 |[K:treble] B,GB,G B,GB,G | %46
 B,GB,G B,GB,G | CGCE CECE | CECE CECE | DBDB DBDB | DFDF DFCF |[K:bass] B,,G,B,,G, B,,G,B,,G, | %52
 B,,G,B,,G, B,,G,B,,^G, | C,.B,.C.B, .C.B,.C z | z8 | z8 | .C,.B,,.C,.B,, .C,.B,,.C,.^C, | %57
 D,G,B,D D,G,B,D | D,F,A,D D,F,A,D | G,2 z2 z4 | z8 |[K:treble] z2 z .G .F.G.A.F | %62
 D2 z .A .G.A.B.G |[K:bass] D2 D4 D2- | D2 D4 D2- | D2 z .G, .F,.G,.A,.F, | %66
 D,2 z .A, .G,.A,.B,.G, | E,2 [E,E]2 [E,E]2 [E,E]2 | [^D,^D]4 [E,E]2 z2 | [C,C]2 z2 [D,D]2 z2 | %70
 G,2 [E,,E,]2 [E,,E,]2 [E,,E,]2 | [^D,,^D,]4 [E,,E,]2 z2 | [C,,C,]2 z2 [D,,D,]2 z2 | %73
 G,B,DB, G,B,DB, | G,CEC G,A,CA, | G,B,DB, G,B,DB, | G,CEC G,A,CA, | [G,B,]4 z4 | %78
 [G,,G,]4 [B,,B,]4 | [D,D]6 [B,,B,][G,,G,] | [F,,F,]2 [G,,G,]2 [A,,A,]2 [B,,B,]2 | %81
 [C,C]6 [A,,A,][F,,F,] | [E,,E,]2 [F,,F,]2 [G,,G,]2 [A,,A,]2 | %83
 [B,,B,]2 [C,C]2 [B,,B,]2 [^A,,^A,]2 | [B,,B,]4 z2 B,,D, | F,4 B,4 | D6 ^CB, | ^A,4 B,2 ^C2 | %88
 F,F,F,F, F,F,F,F, | F,F,F,F, F,F,F,F, | ^C6 FE | D2 E2 F2 F2 | B,,B,B,,B, B,,B,B,,B, | %93
 B,,B,B,,B, B,,B,B,,B, | B,,B,B,,B, B,,B,B,,B, | C,CC,C B,,B,B,,B, | E,2 z2 z4 | F3 E DCB,A, | %98
 [A,E]2 [^G,E]4 [E,G,B,]2 | A,4 C2 B,2 | A,3 G, F,E,D,F, | G,3 F, E,D,C,E, | F,3 E, ^D,^C,B,,D, | %103
 E,2 ED CB,A,^A, | z2 G2 F4 | E4 D2 C2 | z2 G2 F4 | E4 D2 C2 | B,2 z .E, .^D,.E,.F,.D, | %109
 B,,2 z .F, .E,.F,.G,.E, | B,,2 z .G, .F,.G,.A,.F, | .G,.A,.B,.G, .A,.B,.C.A, | B,4 z4 | z8 | %114
 [C,,C,][C,,C,][C,,C,][C,,C,] [C,,C,][C,,C,][C,,C,][C,,C,] | [B,,,B,,]2 z2 z4 | %116
 [E,,E,][E,,E,][E,,E,][E,,E,] [E,,E,][E,,E,][E,,E,][E,,E,] | [A,,,A,,]2 z2 z4 | %118
 [B,,,B,,][B,,,B,,][B,,,B,,][B,,,B,,] [B,,,B,,][B,,,B,,][B,,,B,,][B,,,B,,] | %119
 [B,,,B,,]2 [C,,C,]2 [B,,,B,,]4 | E,,4 ^G,,4 | z2 z2 z2 A,2- | A,2 G,F, E,2 z2 | A,,4 B,,4 | %124
 E,,4 ^G,,4 | z2 z2 z2 A,2- | A,2 G,F, E,2 z2 | A,,4 B,,4 | E,,2 z2 z2 [=F,,=F,]2 | %129
 [=F,,=F,]2 [F,,F,]2 [F,,F,]2 [F,,F,]2 | [E,,E,]4 [=F,,=F,]2 z2 | [G,,G,]8 | C,4 z2 [A,,A,]2 | %133
 [A,,A,]2 [A,,A,]2 [A,,A,]2 [A,,A,]2 | [^G,,^G,]4 [A,,A,]2 z2 | [E,,E,]4 [F,,F,]4 | z8 | %137
 E,2 z2 B,,2 z2 | E,,4 z4 | B,2 z2 E,2 z2 | B,,4 z B,A,F, | E,^D,E,B,, F,E,F,D, | G,2 z2 z4 | %143
 F,E,F,^D, E,D,E,B,, | F,2 z2 z4 | G,EG,E G,EG,E | G,B,G,B, G,B,G,B, | A,CA,C A,CA,C | %148
 A,CA,C A,CA,C | B,GB,G B,GB,G | B,^DB,D B,DB,D | G,EG,E G,EG,E | G,B,G,B, G,B,^G,B, | %153
 .A,.D.C.D .C.D.C z | z8 | z8 | .A,,.^G,,.A,,.G,, .A,,.G,,.A,,.^A,, | B,,E,G,B, B,,E,G,B, | %158
 B,,^D,F,B, B,,D,F,B, | E,2 z2 z4 | z8 | z2 z .E .^D.E.F.D | B,2 z .F .E.F.G.E | B,2 B,4 B,2 | %164
 z2 B,4 B,2 | z2 z .E, .^D,.E,.F,.D, | B,,2 z .F, .E,.F,.G,.E, | C,2 [C,C]2 [C,C]2 [C,C]2 | %168
 [B,,B,]4 [C,C]2 z2 | [A,F]2 z2 [B,F]2 z2 | [C,C]2 [C,,C,]2 [C,,C,]2 [C,,C,]2 | %171
 [B,,,B,,]4 [C,,C,]2 z2 | A,,2 z2 B,,2 z2 | E,EG,E B,EG,E | E,EDE B,E^G,E | E,EA,E CEA,E | %176
 E,B,F,B, A,B,F,B, | E,,E,G,,E, B,,E,G,,E, | E,,E,D,E, B,,E,^G,,E, | E,,E,A,,E, C,E,A,,E, | %180
 E,,B,,F,,B,, A,,B,,F,,B,, | E,,2 z2 B,,2 z2 | E,2 z2 B,,2 z2 | E,,2 z2 z4 | [E,,E,]4 [B,,,B,,]4 | %185
 [G,,G,]6 [F,,F,][G,,G,] | [E,,E,]2 [E,E]2 [E,E]2 [^D,^D][E,E] | [C,C]6 [B,,B,][C,C] | %188
 [A,,A,]2 [A,,A,]2 [A,,A,]2 [^G,,^G,][A,,A,] | [=F,,=F,]2 [E,,E,]2 [^D,,^D,]4 | A,4- A,G,F,E, | %191
 [^D,,^D,]2 [E,,E,]2 [F,,F,]2 [F,,F,]2 | [B,,,B,,]4 z4 | E,4 z4 | E,,8 | B,,8 | [B,,,B,,]8 | %197
 [C,,C,]8 | [B,,,B,,]2 A,,2 G,,2 F,,2 | E,,2 C,2 B,,4 | [E,,E,]4 ^G,,4 | E,6 A,2- | %202
 A,2 G,F, E,2 z2 | [A,,A,]4 [B,,B,]4 | [E,,E,]4 [^G,,E,]4 | [A,,E,]4 [C,E,]4 | [B,,^D,]4 [C,E,]4 | %207
 [A,,A,]4 [B,,B,]4 | [E,,E,]2 z2 [E,E]2 z2 | [E,,E,]4 z4 |][M:3/4] z6 |[K:treble] [EB]4 G2 | %212
 [DF]4 B2 | [CB]4 A2 |[K:bass] B,2 A,2 [G,B,]2 | [A,E]4 B,2 | [CE]4 [B,D]2 |[K:treble] [A,C]4 A2 | %218
 G2 F2 ^D2 | [EB]4 G2 | [DF]4 B2 | [^CB]4 [=C^A]2 |[K:bass] B,2 A,2 [G,B,]2 | [A,E]4 G,2 | %224
 [CE]4 B,2 | [A,C]2[K:treble] EG FA | [EG]2[K:bass] E,2 z2 | E,6 | D,6 | C,6 | B,,2 A,,2 G,,2 | %231
 A,,4 B,,2 | C,4 B,,2 | A,,4 A,2 | B,2 B,,2 z2 | [E,,E,]6 | [^D,,^D,]4 [=D,,=D,]2 | %237
 [^C,,^C,]4 [=C,,=C,]2 | [B,,,B,,]2 [A,,A,]2 [G,,G,]2 | [A,,A,]4 [G,,G,]2 | [^D,,^D,]4 [E,,E,]2 | %241
 [A,,A,]2 [B,,B,]2 [B,,B,]2 | E,2 E,,2 z2 | E,6 | F,6 | D,6 | G,4 [A,F]2 | [B,G]2 z2 B,,2 | %248
 C,2 z4 | C,2 C2 A,2 | D4 z2 | [D,,D,]6 | D,2 D,2 D,2- | D,6 | [D,,D,]2 [D,,D,]2 [D,,D,]2 | %255
 A,,2 G,,2 A,,2 | B,,2 z2 B,,2 | C,2 C,2 A,,2 | B,,2 z2 B,,2 | C,2 C2 ^G,2 | A,2 F,2 G,2 | %261
 C,2 D,2 D,2 | G,,2 B,,2 D,2 | G,,2 G,2 A,2 | B,2 z2 B,2 | C2 C,2 C,2 | B,,2 z2 D,2 | C,2 C2 ^G,2 | %268
 A,2 D,2 G,2 | C,2 D,2 D,2 | [E,,E,]2 [F,,F,]2 [G,,G,]2 | [C,,C,]2 [D,,D,]2 [D,,D,]2 | %272
 G,G,, G,A, =F,G, | E,C, A,B, G,A, | F,D, B,C A,B, | G,^D, E,=D, ^C,=C, | B,,2 z4 | z6 | %278
 B,F, G,^D, E,^A,, | B,,/4C,/4B,,/4C,/4B,,/4C,/4B,,/4C,/4 B,,/4C,/4B,,/4C,/4 B,,2 ^A,, | %280
 (7:4:7B,,/^D,/F,/^A,/B,/C/^C/ (9:8:9D/4^D/4E/4=F/4^F/4G/4^G/4A/4^A/4 (9:8:9B/4c/4^c/4d/4^d/4e/4^e/4f/4g/4 | %281
 E6 | D6 | C6 | B,2 A,2 G,2 | A,4 G,2 | C4 B,2 | A,2 z2 A,2 | B,4 z2 | E,,E, G,B, E,,E, | %290
 D,,D, F,B, D,,D, | C,,C, E,A, A,,,A,, | B,,,B,, ^D,F, G,,G, | A,,C, E,A, ^G,,^G, | %294
 C,E, A,C B,,B, | D,D C,C ^G,,^G, | ^G,,^G, A,,A, =G,,=G, | G,,G, F,,F, A,,A, | A,,A, G,,G, E,G, | %299
 A,F, B,^A, B,B,, | E,2 E,,2 z2 | z2 A,2 B,2 | z2 C2 G,2 | z2 A,2 B,2 ||[K:E] E,2 z2 [E,B,]2 | %305
 [E,B,]2 [E,B,]2 [E,B,]2 | A,4 A,2 | A,2 A,2 A,2 | [G,B,]4 [E,G,]2 | [E,G,]2 [F,A,]2 [G,B,]2 | %310
 C2 D2 G,2 | [D,B,]4 [E,B,]2 | [B,,B,]4 E,2 | E,2 E,2 E,2 | [A,,A,]4 [A,,A,]2 | %315
 [A,,A,]2 [A,,A,]2 [A,,A,]2 | [G,,G,]4 [G,,G,]2 | [^A,,^A,]2 [A,,A,]2 [A,,A,]2 | %318
 [B,,B,]4 [E,,E,]2 | [F,,F,]6 | [B,,,B,,]2 z4 | [C,G,]4 [^E,C]2 | [F,C]4 [=C,A,]2 | %323
 [B,,A,]4 [D,B,]2 | [E,B,]4 [^B,,^B,]2 | [C,C]4 [B,,B,]2 | [A,,A,]2 [G,,G,]2 z2 | [C,^A,]6 | B,6- | %329
 B,6 | z2 z2 E,2 | E,2 E,2 E,2 | [A,,A,]4 A,2 | A,2 A,2 A,2 | G,4 [G,B,]2 | %335
 [G,B,]2 [A,C]2 [B,=D]2 | C2 D2 E2 | A,2 B,2 B,,2 | E,2 z4 ||[K:G] [E,B,]4 G,2 | [D,F,]4 B,2 | %341
 [C,B,]4 ^A,2 | [B,,B,]2 A,,2 [G,,B,,]2 | [A,,E,]4 [B,,E,]2 | [C,E,]4 [B,,D,]2 | [A,,C,]4 A,2 | %346
 G,2 F,2 z2 | (9:6:9E,G,B, E,G,B, E,G,B, | (9:6:9^D,F,B, D,F,B, =D,F,B, | %349
 (9:6:9^C,G,^A, C,G,A, =C,G,A, | (9:6:9B,,F,A, B,,F,A, E,^G,B, | (9:6:9E,A,C E,A,C E,B,D | %352
 (9:6:9E,B,D E,CE E,B,D | (9:6:9E,D=F E,CE E,^G,D | (9:6:9E,^G,D E,A,C E,=G,_B, | %355
 (9:6:9E,G,_B, =F,A,D ^F,A,C | (9:6:9F,A,C G,B,E G,,B,,E, | (9:6:9A,,C,F, B,,E,G, B,,^D,F, | %358
 [E,G,]2 z4 | z2 [G,,G,]2 z2 | z2 [A,,A,]2 z2 | z2 [B,,B,]2 z2 | z2 [C,C]2 z2 | z2 [G,,,G,,]2 z2 | %364
 z2 [A,,,A,,]2 z2 | z2 [B,,,B,,]2 [B,,,B,,]2 | E,2 E,,2 z2 | G,,B,, ^D,E, G,,E, | %368
 A,,B,, ^D,E, A,,E, | B,,G, ^D,E, B,,G, | C,G, ^D,E, z2 | G,,B,, ^D,E, G,,E, | A,,C, ^D,E, A,,E, | %373
 B,,E, ^D,E, F,B, | G,2 E,2 G,2 | A,2 B,2 A,2 | [G,,G,]2 [E,,E,]2 [G,,G,]2 | %377
 [A,,A,]2 [B,,B,]2 [B,,,B,,]2 | [E,,E,]2 z2 z2 | z2 (3B,EB, (3G,B,G, | %380
[K:E] (3E,G,E, (3B,,E,B,, (3G,,B,,G,, | [E,,E,]2 [E,,,E,,]4 |] %382
V:3
 x4[K:bass] x4 | x4[K:treble] x4 | x8 | x8 |[K:bass] x8 | x8 | x8 | x8 | x3[K:treble] x5 | x8 | %10
 x8 | x8 | x8 |[K:bass] x8 | x8 | x8 |[K:treble] x8 | x8 | x8 | x2 A,2 G,2 F,2 | x8 | x8 | %22
 A2 GF E2 x2 | x8 | x8 | x8 | A2 GF E2 x2 | x8 | x8 | x8 | G6 z2 | D4 ^F4 | x8 | x8 | G6 z2 | %35
 G4 E4 | x8 | x8 | x8 | x8 | x8 | x8 | x8 | x8 | x8 | x8 | x8 | x8 | x8 | x8 | x8 | x8 | x8 | x8 | %54
 x8 | x8 | x8 | x8 | x8 | x8 | x8 | x8 | x8 | x8 | x8 | x8 | x8 | x8 | f4 e2 z2 | x8 | x8 | x8 | %72
 x8 | x8 | x8 | x8 | x8 | x8 | x8 | x8 | x8 | x8 | x8 | x8 | x8 | x8 | x8 | x8 | x8 | x8 | x8 | %91
 x8 | x8 | x8 | e2 ^d2 z4 | x8 | x8 | x8 | x8 | x8 | x8 | x8 | x8 | x8 | x8 | x8 | x8 | x8 | x8 | %109
 x8 | x8 | x8 | x8 | x8 |[K:bass] x8 | x8 | x8 | x8 | x8 | E,2 F,2 G,2 F,2 | x6[K:treble] x2 | x8 | %122
 x8 | x8 | x8 | x8 | x8 | x8 | x8 | x8 | c6 z2 | G4 B4 | x8 | x8 | E6 z2 | E4 ^C4 | x8 | x8 | x8 | %139
 x8 | x8 | x8 | x8 | x8 | x8 | x8 | x8 | x8 | x8 | x8 | x8 | x8 | x8 | x8 | x8 | x8 | x8 | x8 | %158
 x8 | x8 | x8 | x8 | x8 | x8 | x8 | x8 | x8 | x8 | d4 c2 z2 | x8 | x2[K:bass] x6 | %171
 G,2 ^G,2 A,2 z2 | x8 |[K:treble] x8 | x8 | x8 | x8 | x8 | x8 | x8 | x8 | x8 | x8 | x8 | x8 | x8 | %186
 x8 | x8 | x8 | x8 | x8 | x8 | x8 |[K:bass] G,2 G,2 G,2 G,2 | G,2 G,2 G,2 G,2 | A,2 A,2 A,2 A,2 | %196
 F,2 F,2 F,2 F,2 | F,2 F,2 F,2 F,2 | F,2 F,2 F,2 F,2 | G,2 A,2 G,2 F,2 | x6[K:treble] x2 | x8 | %202
 x8 | x8 | x8 | x8 | A2 GF E2 x2 | x8 | x8 | x8 |][M:3/4] x6 | x6 | x6 | x6 | x6 | x6 | x6 | x6 | %218
 x6 | x6 | x6 | x6 | x6 | x6 | x6 | x6 | x6 | x6 | x6 | x6 | x6 | x6 | x6 | x6 | x6 | x6 | x6 | %237
 x6 | x6 | x6 | x6 | x6 | x6 | x6 | x6 | x6 | x6 | x6 | x6 | x6 | x6 | x6 | x6 | x6 | x6 | x6 | %256
 x6 | x6 | x6 | x6 | x6 | x6 | x6 | x6 | x6 | x6 | x6 | x6 | x6 | x6 | x6 | x6 | x6 | x6 | x6 | %275
 x6 | x6 | x6 | x6 | x6 | x6 | x6 | x6 | x6 | x6 | x6 | x6 | x6 | x6 | x6 | x6 | x6 | x6 | x6 | %294
 x4 ^G2- | G2 A2 B2- | B2 c2 ^c2- | c2 d2 ^d2- | d2 e2 x2 | x6 | x6 | x6 | x6 | x6 ||[K:E] x6 | %305
 x6 | [CE]4 x2 | x6 | E4 x2 | x6 | x6 | F4 E2 | E2 D2 EB, | EB, EB, EB, | C4 DB, | DB, DB, DB, | %316
 E4 B,2 | x6 | x6 | x6 | x6 | x6 | x6 | x6 | x6 | E6 | E4 x2 | x6 | x6 | x6 | z2 z2 EB, | %331
 EB, EB, EB, | [CE]4 DB, | DB, DB, DB, | E4 x2 | x6 | x6 | F2 E2 D2 | x6 ||[K:G] x6 | x6 | x6 | %342
 x6 | x6 | x6 | x6 | x6 | x6 | x6 | x6 | x6 | x6 | x6 | x6 | x6 | x6 | x6 | x6 | x6 | x6 | x6 | %361
 x6 | x6 | x6 | x6 | x6 | x6 | x6 | x6 | x6 | x6 | x6 | x6 | x6 | x6 | x6 | x6 | x6 | x6 | x6 | %380
[K:E] x6 | x6 |] %382
V:4
 x8 | x8 | x8 | x8 | x8 | x8 | x8 | x8 | x8 | x8 | x8 | x8 | x8 | x8 | x8 | x8 | x8 | x8 | x8 | %19
 x8 | x8 | x8 | x8 | x8 | x8 | x8 | x8 | x8 | x8 | x8 | x8 | x8 | x8 | x8 | x8 | x8 | x8 | x8 | %38
 x8 | x8 | x8 | x8 | x8 | x8 | x8 |[K:treble] x8 | x8 | x8 | x8 | x8 | x8 |[K:bass] x8 | x8 | x8 | %54
 x8 | x8 | x8 | x8 | x8 | x8 | x8 |[K:treble] x8 | x8 |[K:bass] x8 | x8 | x8 | x8 | x8 | x8 | x8 | %70
 x8 | x8 | x8 | x8 | x8 | x8 | x8 | x8 | x8 | x8 | x8 | x8 | x8 | x8 | x8 | x8 | x8 | x8 | x8 | %89
 x8 | F,2 G,2 F,2 F,2 | G,4 F,2 F,2 | x8 | x8 | x8 | x8 | x8 | x8 | x8 | F,4 E,4 | x8 | x8 | x8 | %103
 x8 | B,4 B,4 | B,4 B,4 | B,4 B,4 | B,4 B,4 | x8 | x8 | x8 | x8 | x8 | x8 | x8 | x8 | x8 | x8 | %118
 x8 | x8 | x8 | A,,4 C,4 | B,,4 C,4 | x8 | x8 | A,,4 C,4 | B,,4 C,4 | x8 | x8 | x8 | x8 | x8 | x8 | %133
 x8 | x8 | x8 | x8 | x8 | x8 | x8 | x8 | x8 | x8 | x8 | x8 | x8 | x8 | x8 | x8 | x8 | x8 | x8 | %152
 x8 | x8 | x8 | x8 | x8 | x8 | x8 | x8 | x8 | x8 | x8 | x8 | x8 | x8 | x8 | x8 | x8 | x8 | x8 | %171
 x8 | x8 | x8 | x8 | x8 | x8 | x8 | x8 | x8 | x8 | x8 | x8 | x8 | x8 | x8 | x8 | x8 | x8 | x8 | %190
 A,,4- A,,G,,F,,E,, | x8 | x8 | x8 | x8 | x8 | x8 | x8 | x8 | x8 | x8 | A,,4 C,4 | B,,4 C,4 | x8 | %204
 x8 | x8 | x8 | x8 | x8 | x8 |][M:3/4] x6 |[K:treble] x6 | x6 | x6 |[K:bass] x6 | x6 | x6 | %217
[K:treble] x6 | B,6 | x6 | x6 | x6 |[K:bass] x6 | x6 | x6 | x2[K:treble] B,2 B,2 | x2[K:bass] x4 | %227
 x6 | x6 | x6 | x6 | x6 | x6 | x6 | x6 | x6 | x6 | x6 | x6 | x6 | x6 | x6 | x6 | x6 | x6 | x6 | %246
 x6 | x6 | x6 | x6 | x6 | x6 | D,,2 D,,2 D,,2- | D,,6 | x6 | x6 | x6 | x6 | x6 | x6 | x6 | x6 | %262
 x6 | x6 | x6 | x6 | x6 | x6 | x6 | x6 | x6 | x6 | x6 | x6 | x6 | x6 | x6 | x6 | %278
 B,,F,, G,,^D,, E,,^A,,, | B,,,4 x2 | x6 | x6 | x6 | x6 | x6 | x6 | x6 | x6 | x6 | x6 | x6 | x6 | %292
 x6 | x6 | x6 | x6 | x6 | x6 | x6 | x6 | x6 | x6 | x6 | x6 ||[K:E] x6 | x6 | x6 | x6 | x6 | x6 | %310
 A,4 x2 | x6 | x6 | x6 | x6 | x6 | x6 | x6 | x6 | x6 | x6 | x6 | x6 | x6 | x6 | x6 | x6 | x6 | %328
 B,,6- | B,,2 x4 | x6 | x6 | x6 | x6 | x6 | x6 | A,4 G,2 | x6 | x6 ||[K:G] x6 | x6 | x6 | x6 | x6 | %344
 x6 | x6 | B,,4 z2 | x6 | x6 | x6 | x6 | x6 | x6 | x6 | x6 | x6 | x6 | x6 | x6 | x6 | x6 | x6 | %362
 x6 | x6 | x6 | x6 | x6 | G,,6 | A,,6 | B,,6 | C,4 z2 | G,,6 | A,,6 | B,,6 | x6 | x6 | x6 | x6 | %378
 x6 | x6 |[K:E] x6 | x6 |] %382

